app/assets/icons/polaris/WholesaleMajor.svg

<svg viewBox="0 0 20 20" xmlns="http://www.w3.org/2000/svg"><path fill-rule="evenodd" d="M17 3a1 1 0 1 0-2 0v5.392a2.5 2.5 0 0 0-.32-1.223l-2.184-3.892a2.5 2.5 0 0 0-2.18-1.277h-2.816a2.5 2.5 0 0 0-2.5 2.5v1.5h-2.5a1.5 1.5 0 0 0-1.5 1.5v2.585a1.5 1.5 0 0 0-1 1.415v5.5a3 3 0 1 0 6 0h3a3 3 0 1 0 6 0v-2h4a1 1 0 1 0 0-2h-2v-10zm-14 7h2v-2h-2v2zm10-1.608v1.608h-6v-5.5a.5.5 0 0 1 .5-.5h2.816a.5.5 0 0 1 .436.255l2.184 3.892a.5.5 0 0 1 .064.245zm-9 8.608a1 1 0 1 1-2 0 1 1 0 0 1 2 0zm8 1a1 1 0 1 0 0-2 1 1 0 0 0 0 2z"/></svg>

<svg viewBox="0 0 20 20" xmlns="http://www.w3.org/2000/svg"><path fill-rule="evenodd" d="M17 3a1 1 0 1 0-2 0v5.392a2.5 2.5 0 0 0-.32-1.223l-2.184-3.892A2.5 2.5 0 0 0 10.316 2H7.5A2.5 2.5 0 0 0 5 4.5V6H2.5A1.5 1.5 0 0 0 1 7.5v2.585A1.5 1.5 0 0 0 0 11.5V17a3 3 0 1 0 6 0h3a3 3 0 1 0 6 0v-2h4a1 1 0 1 0 0-2h-2V3zM3 10h2V8H3v2zm10-1.608V10H7V4.5a.5.5 0 0 1 .5-.5h2.816a.5.5 0 0 1 .436.255l2.184 3.892a.5.5 0 0 1 .064.245zM4 17a1 1 0 1 1-2 0 1 1 0 0 1 2 0zm8 1a1 1 0 1 0 0-2 1 1 0 0 0 0 2z"/></svg>
